icons/Yaru-remix/scalable/actions/go-previous-rtl-symbolic.svg

<svg height="16" width="16" xmlns="http://www.w3.org/2000/svg">
    <path d="M6 0c.69.874 1.397 1.757 2.008 2.656.679 1 1.287 1.972 1.825 2.912.497.868.87 1.774 1.167 2.432-.297.658-.67 1.564-1.167 2.432a44.816 44.816 0 0 1-1.825 2.912c-.61.9-1.317 1.782-2.008 2.656v-1.49c.4-.524.837-1.062 1.222-1.625.486-.71.942-1.437 1.37-2.18.433-.755.95-1.792 1.285-2.5v-.001L9.973 8l-.096-.203a39.108 39.108 0 0 0-1.285-2.501 32.873 32.873 0 0 0-1.37-2.181C6.837 2.553 6.4 2.015 6 1.49V0z" fill="gray"/>
</svg>

<?xml version="1.0" encoding="UTF-8" standalone="no"?>
<svg
   xmlns:dc="http://purl.org/dc/elements/1.1/"
   xmlns:cc="http://creativecommons.org/ns#"
   xmlns:rdf="http://www.w3.org/1999/02/22-rdf-syntax-ns#"
   xmlns:svg="http://www.w3.org/2000/svg"
   xmlns="http://www.w3.org/2000/svg"
   xmlns:sodipodi="http://sodipodi.sourceforge.net/DTD/sodipodi-0.dtd"
   xmlns:inkscape="http://www.inkscape.org/namespaces/inkscape"
   height="16"
   width="16"
   version="1.1"
   id="svg4"
   sodipodi:docname="go-previous-rtl-symbolic.svg"
   inkscape:version="1.0.1 (3bc2e813f5, 2020-09-07)">
  <metadata
     id="metadata10">
    <rdf:RDF>
      <cc:Work
         rdf:about="">
        <dc:format>image/svg+xml</dc:format>
        <dc:type
           rdf:resource="http://purl.org/dc/dcmitype/StillImage" />
      </cc:Work>
    </rdf:RDF>
  </metadata>
  <defs
     id="defs8" />
  <sodipodi:namedview
     pagecolor="#ffffff"
     bordercolor="#666666"
     borderopacity="1"
     objecttolerance="10"
     gridtolerance="10"
     guidetolerance="10"
     inkscape:pageopacity="0"
     inkscape:pageshadow="2"
     inkscape:window-width="1536"
     inkscape:window-height="800"
     id="namedview6"
     showgrid="false"
     inkscape:zoom="40.875"
     inkscape:cx="8"
     inkscape:cy="8"
     inkscape:window-x="0"
     inkscape:window-y="27"
     inkscape:window-maximized="1"
     inkscape:current-layer="svg4" />
  <path
     d="m 6,0 c 0.69,0.874 1.397,1.757 2.008,2.656 0.679,1 1.287,1.972 1.825,2.912 C 10.33,6.436 10.703,7.342 11,8 10.703,8.658 10.33,9.564 9.833,10.432 A 44.816,44.816 0 0 1 8.008,13.344 C 7.398,14.244 6.691,15.126 6,16 v -1.49 c 0.4,-0.524 0.837,-1.062 1.222,-1.625 0.486,-0.71 0.942,-1.437 1.37,-2.18 0.433,-0.755 0.95,-1.792 1.285,-2.5 V 8.204 L 9.973,8 9.877,7.797 A 39.108,39.108 0 0 0 8.592,5.296 32.873,32.873 0 0 0 7.222,3.115 C 6.837,2.553 6.4,2.015 6,1.49 Z"
     fill="#808080"
     id="path2" />
</svg>
